X: 610
%
T: Thorn Bush
C:James Fraser
O:Scotland
B:Keith Norman MacDonald : "The Skye collection of the best reels & strathspeys extant" : 1887
Z:Ralph Palmer
R:Strathspey
M:C
L:1/8
K:A
!f!e | A>Bc<A F<AE>C | B,<BB>c (d/2c/2B/2A/2) G<B | A>Bc<A F<AE>C | [1 D>FE>G AA,A, :|
[2 D>FE>G A/2A/2A A || e | (d/2c/2B/2A/2) e<A f<ae>c | d>B (d/2c/2B/2A/2) G<BB>e | (d/2c/2B/2A/2) e<A f<ae>c | d>B (d/2c/2B/2A/2) E<AA>e |
!f!(d/2c/2B/2A/2) e<A f<ae>c | d>B (d/2c/2B/2A/2) G<BB>d | (3.c.A.c (3.e.c.e (3.f.d.f (3.a.g.f | (3.e.d.c (3.c.B.A E<BA :|


